assets/img/contacts/phone.svg

<svg width="80" height="80" viewBox="0 0 80 80" fill="none" xmlns="http://www.w3.org/2000/svg">
<path d="M64.3001 33.69C64.3801 24.05 56.1701 15.2133 46.0001 13.99C45.7803 13.9626 45.5613 13.9292 45.3434 13.89C44.8321 13.7921 44.3137 13.7364 43.7934 13.7233C41.7067 13.7233 41.1501 15.19 41.0034 16.06C40.8601 16.91 40.9967 17.6267 41.4067 18.1833C42.0967 19.12 43.3134 19.2867 44.2901 19.42C44.5734 19.46 44.8434 19.4967 45.0701 19.5467C54.2101 21.59 57.2867 24.8 58.7901 33.8633C58.8267 34.0833 58.8434 34.3567 58.8634 34.6467C58.9301 35.73 59.0634 37.9833 61.4867 37.9833C61.6867 37.9833 61.9067 37.9667 62.1334 37.9333C64.3867 37.59 64.3167 35.53 64.2834 34.54C64.2734 34.26 64.2634 33.9967 64.2901 33.82C64.2954 33.7758 64.2976 33.7312 64.2967 33.6867L64.3001 33.69Z" fill="#00A0E3"/>
<path d="M43.2 10.4533C43.4733 10.4733 43.7267 10.4933 43.94 10.5233C58.95 12.8333 65.8533 19.9433 67.7633 35.07C67.7967 35.3267 67.8033 35.64 67.8067 35.97C67.8267 37.1533 67.8667 39.6133 70.5067 39.6633H70.5867C71.4167 39.6633 72.0733 39.4133 72.5467 38.92C73.3667 38.0633 73.3133 36.7867 73.2633 35.76C73.2533 35.5067 73.2433 35.27 73.2433 35.06C73.4367 19.5933 60.0433 5.56333 44.59 5.04333C44.5233 5.04333 44.4633 5.04333 44.4033 5.05333C44.3425 5.06101 44.2813 5.06435 44.22 5.06333C44.0633 5.06333 43.8767 5.05 43.6733 5.03667C43.4333 5.02 43.1567 5 42.8733 5C40.4133 5 39.9467 6.75 39.8867 7.79333C39.75 10.2033 42.08 10.3733 43.2 10.4533ZM67.04 54.62C66.718 54.3752 66.3991 54.1263 66.0833 53.8733C64.4433 52.5533 62.7 51.34 61.0167 50.1633L59.9667 49.43C57.8067 47.9133 55.8667 47.1767 54.0333 47.1767C51.56 47.1767 49.4067 48.5433 47.6267 51.2333C46.84 52.4267 45.8833 53.0067 44.7067 53.0067C43.8894 52.9781 43.0874 52.777 42.3533 52.4167C35.3867 49.2567 30.4067 44.41 27.56 38.0133C26.1833 34.92 26.63 32.9 29.05 31.2533C30.4267 30.32 32.9833 28.5833 32.8067 25.2533C32.6 21.4767 24.2633 10.1067 20.75 8.81667C19.2481 8.2688 17.6017 8.26409 16.0967 8.80333C12.06 10.16 9.16668 12.5467 7.71668 15.6967C6.31668 18.7433 6.38334 22.32 7.89668 26.04C12.28 36.7967 18.44 46.1767 26.21 53.9167C33.8133 61.4933 43.16 67.6967 53.9867 72.36C54.9633 72.78 55.9867 73.01 56.7367 73.1767C56.99 73.2333 57.21 73.2833 57.37 73.3267C57.4581 73.3504 57.5488 73.3627 57.64 73.3633H57.7267C62.82 73.3633 68.9367 68.71 70.8133 63.4067C72.46 58.76 69.4533 56.4633 67.04 54.62ZM45.4533 22.7433C44.5833 22.7633 42.7667 22.81 42.13 24.6567C41.83 25.5233 41.8667 26.27 42.2367 26.8867C42.7767 27.7867 43.8133 28.0667 44.7533 28.22C48.17 28.7667 49.9267 30.6533 50.2767 34.1633C50.44 35.7967 51.5433 36.94 52.9533 36.94C53.0603 36.9398 53.1672 36.9332 53.2733 36.92C54.9733 36.72 55.7967 35.47 55.7233 33.2067C55.75 30.8467 54.5167 28.1667 52.4133 26.0333C50.3067 23.8933 47.7667 22.6867 45.4533 22.7433Z" fill="#00A0E3"/>
</svg>

<svg width="80" height="80" fill="none" xmlns="http://www.w3.org/2000/svg"><path d="M64.3 33.69c.08-9.64-8.13-18.477-18.3-19.7-.22-.027-.439-.06-.657-.1a9.516 9.516 0 00-1.55-.167c-2.086 0-2.643 1.467-2.79 2.337-.143.85-.006 1.567.404 2.123.69.937 1.906 1.104 2.883 1.237.283.04.553.077.78.127 9.14 2.043 12.217 5.253 13.72 14.316.037.22.053.494.073.784.067 1.083.2 3.336 2.624 3.336.2 0 .42-.016.646-.05 2.254-.343 2.184-2.403 2.15-3.393-.01-.28-.02-.543.007-.72a.958.958 0 00.007-.133l.003.003z" fill="#00A0E3"/><path d="M43.2 10.453c.273.02.527.04.74.07 15.01 2.31 21.913 9.42 23.823 24.547.034.257.04.57.044.9.02 1.183.06 3.643 2.7 3.693h.08c.83 0 1.486-.25 1.96-.743.82-.857.766-2.133.716-3.16-.01-.253-.02-.49-.02-.7.194-15.467-13.2-29.497-28.653-30.017-.067 0-.127 0-.187.01a1.29 1.29 0 01-.183.01c-.157 0-.343-.013-.547-.026-.24-.017-.516-.037-.8-.037-2.46 0-2.926 1.75-2.986 2.793-.137 2.41 2.193 2.58 3.313 2.66zM67.04 54.62c-.322-.245-.64-.494-.957-.747-1.64-1.32-3.383-2.533-5.066-3.71l-1.05-.733c-2.16-1.517-4.1-2.253-5.934-2.253-2.473 0-4.626 1.366-6.406 4.056-.787 1.194-1.744 1.774-2.92 1.774a5.802 5.802 0 01-2.354-.59c-6.966-3.16-11.946-8.007-14.793-14.404-1.377-3.093-.93-5.113 1.49-6.76 1.377-.933 3.933-2.67 3.757-6-.207-3.776-8.544-15.146-12.057-16.436a6.843 6.843 0 00-4.653-.014c-4.037 1.357-6.93 3.744-8.38 6.894-1.4 3.046-1.334 6.623.18 10.343C12.28 36.797 18.44 46.177 26.21 53.917c7.603 7.576 16.95 13.78 27.777 18.443.976.42 2 .65 2.75.817.253.056.473.106.633.15.088.023.179.036.27.036h.087c5.093 0 11.21-4.653 13.086-9.956 1.647-4.647-1.36-6.944-3.773-8.787zM45.453 22.743c-.87.02-2.686.067-3.323 1.914-.3.866-.263 1.613.107 2.23.54.9 1.576 1.18 2.516 1.333 3.417.547 5.174 2.433 5.524 5.943.163 1.634 1.266 2.777 2.676 2.777.107 0 .214-.007.32-.02 1.7-.2 2.524-1.45 2.45-3.713.027-2.36-1.206-5.04-3.31-7.174-2.106-2.14-4.646-3.346-6.96-3.29z" fill="#00A0E3"/></svg>
